X: 1447
T: Frank Collins' Step Tune
B: australian traditional tunes wiki
M:2/4
L:1/16
R: Step Tune
Q: 1/4=100
K:G
V:1 
Bd|:"G"gdBd G2AB|"C"ce"D"dB "G"G2BB|"C"ceAA "G"Bddd|D2G2 "D"A2dd|"G"gdBd G2AB|
"C"ce"D"dB "G"G2BB|"C"ceAA "G"Bddd|1D2G2 "G"G2Bd:|2"D"D2G2 "G"G2Bc||
||"G"dBGB dBG2|"C"ccef g2fe|"G"dBGB dB"C"c2|"A7"A2FG "D"A2Bc|
"G"dBGB dBG2|"C"ccef g2fe|"G"dgfe "D"dcBA|"G"G2"C"g2 "G"g3g||
"G"gdBd gdBd|"C"gece gece|"G"gdBd gdBd|"D"D2F2 F2dd|
"G"gdBd gdBd|"C"gece g2fe|"G"d2fe "D"dcBA|"G"G2"C"g2"G" g3z||
% abcbook-tune_id 6342d53a33b97ee1c4bbd65d


% abcbook-boost 0
% abcbook-tablature 
% abcbook-transpose 
% abcbook-lastupdated 1665324365535
% abcbook-soundfonts 
% abcbook-repeats 1
% NFF Book 2007

